icons/src/svg/star.svg

<svg width="32" height="32" viewBox="0 0 32 32" fill="none" xmlns="http://www.w3.org/2000/svg">
<path fill-rule="evenodd" clip-rule="evenodd" d="M16 5.09377L13.1253 11.8765C12.8648 12.4912 12.2854 12.9112 11.6202 12.9677L4.26928 13.5913L9.85352 18.429C10.3585 18.8665 10.5797 19.5477 10.4279 20.1984L8.75096 27.3866L15.0699 23.5727C15.6419 23.2275 16.3581 23.2274 16.9302 23.5727L23.2491 27.3866L21.5722 20.1984C21.4204 19.5477 21.6415 18.8665 22.1466 18.429L27.7308 13.5913L20.3799 12.9677C19.7147 12.9112 19.1353 12.4912 18.8748 11.8765L16 5.09377ZM14.3427 3.87884C14.963 2.41539 17.0371 2.41538 17.6573 3.87884L20.6692 10.985L28.3722 11.6386C29.9588 11.7732 30.6021 13.75 29.3986 14.7926L23.5473 19.8616L25.3045 27.3938C25.6662 28.9444 23.9846 30.1665 22.6214 29.3438L16 25.3474L9.37863 29.3438C8.01546 30.1665 6.33385 28.9444 6.69558 27.3938L8.45273 19.8616L2.60145 14.7926C1.39798 13.75 2.04131 11.7732 3.62788 11.6386L11.3309 10.985L14.3427 3.87884Z" fill="#0D0F13"/>
</svg>

<svg fill="none" xmlns="http://www.w3.org/2000/svg" viewBox="0 0 32 32">
  <path fill-rule="evenodd" clip-rule="evenodd" d="m16 5.095-2.875 6.782a1.8 1.8 0 0 1-1.505 1.091l-7.35.624 5.584 4.838a1.8 1.8 0 0 1 .574 1.77L8.75 27.386l6.319-3.814a1.8 1.8 0 0 1 1.86 0l6.32 3.814-1.678-7.188a1.8 1.8 0 0 1 .575-1.77l5.584-4.837-7.351-.624a1.8 1.8 0 0 1-1.505-1.09L16 5.094ZM14.343 3.88c.62-1.464 2.694-1.464 3.314 0l3.012 7.106 7.703.653c1.587.135 2.23 2.112 1.027 3.154l-5.852 5.07 1.758 7.532c.361 1.55-1.32 2.772-2.684 1.95L16 25.348l-6.621 3.997c-1.364.822-3.045-.4-2.683-1.95l1.757-7.533L2.6 14.793c-1.203-1.042-.56-3.02 1.027-3.154l7.703-.653 3.012-7.106Z" fill="currentColor"/>
</svg>
